icons/bag-star-outline.svg

<svg xmlns="http://www.w3.org/2000/svg" width="24" height="24" viewBox="0 0 24 24">
  <path d="M14,2 C15.5976809,2 16.9036609,3.24891996 16.9949073,4.82372721 L17,5 L17,6 L19,6 C20.5976809,6 21.9036609,7.24891996 21.9949073,8.82372721 L22,9 L22,19 C22,20.5976809 20.75108,21.9036609 19.1762728,21.9949073 L19,22 L5,22 C3.40231912,22 2.09633912,20.75108 2.00509269,19.1762728 L2,19 L2,9 C2,7.40231912 3.24891996,6.09633912 4.82372721,6.00509269 L5,6 L7,6 L7,5 C7,3.40231912 8.24891996,2.09633912 9.82372721,2.00509269 L10,2 L14,2 Z M19,8 L5,8 C4.48716416,8 4.06449284,8.38604019 4.00672773,8.88337887 L4,9 L4,19 C4,19.5128358 4.38604019,19.9355072 4.88337887,19.9932723 L5,20 L19,20 C19.5128358,20 19.9355072,19.6139598 19.9932723,19.1166211 L20,19 L20,9 C20,8.44771525 19.5522847,8 19,8 Z M12.2212829,10.1814077 C12.3198892,10.2300728 12.3997029,10.3098866 12.448368,10.4084929 L13.3225168,12.1797118 L15.2771729,12.4637399 C15.5504453,12.5034487 15.7397861,12.7571702 15.7000773,13.0304426 C15.684265,13.1392611 15.6330214,13.2398323 15.5542796,13.3165866 L14.1398772,14.6952882 L14.4737723,16.6420462 C14.5204528,16.9142144 14.3376589,17.1726924 14.0654907,17.2193729 C13.9571118,17.2379613 13.8456278,17.220304 13.7482976,17.1691344 L12,16.25 L10.2517024,17.1691344 C10.0072801,17.2976348 9.70496657,17.2036616 9.57646617,16.9592393 C9.52529663,16.861909 9.50763929,16.750425 9.52622772,16.6420462 L9.86012284,14.6952882 L8.4457204,13.3165866 C8.24797861,13.123836 8.24393246,12.8072794 8.43668307,12.6095376 C8.51343737,12.5307958 8.61400857,12.4795522 8.72282709,12.4637399 L10.6774832,12.1797118 L11.551632,10.4084929 C11.6738431,10.160866 11.973656,10.0591965 12.2212829,10.1814077 Z M14,4 L10,4 C9.48716416,4 9.06449284,4.38604019 9.00672773,4.88337887 L9,5 L9,6 L15,6 L15,5 C15,4.48716416 14.6139598,4.06449284 14.1166211,4.00672773 L14,4 Z"/>
</svg>

<svg xmlns="http://www.w3.org/2000/svg" viewBox="0 0 24 24">
  <path d="M14 2a3 3 0 0 1 3 2.82V6h2a3 3 0 0 1 3 2.82V19a3 3 0 0 1-2.82 3H5a3 3 0 0 1-3-2.82V9a3 3 0 0 1 2.82-3H7V5a3 3 0 0 1 2.82-3H14zm5 6H5a1 1 0 0 0-1 .88V19a1 1 0 0 0 .88 1H19a1 1 0 0 0 1-.88V9a1 1 0 0 0-1-1zm-6.78 2.18c.1.05.18.13.23.23l.87 1.77 1.96.28a.5.5 0 0 1 .27.86l-1.41 1.38.33 1.94a.5.5 0 0 1-.72.53L12 16.25l-1.75.92a.5.5 0 0 1-.72-.53l.33-1.94-1.41-1.38a.5.5 0 0 1 .27-.86l1.96-.28.87-1.77a.5.5 0 0 1 .67-.23zM14 4h-4a1 1 0 0 0-1 .88V6h6V5a1 1 0 0 0-.88-1H14z"/>
</svg>
